X:1
T:Choix de chansons. Tome 1
T:Comment Colin sait-il que je l'aime
T:Comment Colin sait-il que je l'aime ?
T:Jean Benjamin de La Borde
C:Jean Benjamin de La Borde
Z:M. de Marmontel
%%score 1 { ( 2 3 ) | ( 4 5 ) }
L:1/8
Q:1/4=118
M:2/2
K:Eb
V:1 treble nm="Ténor" snm="T."
V:2 treble nm="Clavecin" snm="Cla."
V:3 treble 
V:4 bass 
V:5 bass 
V:1
!p!"^Larghetto" c (c2 A) c | (c2 A) A d f d B | e2 B2 g2{/g} f e | d2 e2 f3 g |{/g} f4 c2 A c | %5
w: Com- ment * Co-|lin * sait— il donc que je|l'ai- me? J'ai si bien|l'air de le ha-|ïr! Est— ce mon|
w: |||||
w: |||||
 (c2 A) A d f d B | e2 B2 g2 f f | B B (c/A/) (a/f/) e3 (f/d/) | !fermata!e4 |: z2 G B | %10
w: cœur * qui s'est tra- hi lui|mê- me? Est— ce l'a-|mour qui m'a * vou- * lu tra- *|hir?|A- vec|
w: ||||Dans mes|
w: ||||Un bai-|
 B3 c (cB) F A |{/B} A2 G2 e2{/e} d c | f2 =A B e2 d e | (d2 c2) (ed) (cB) | (=AB) c d e3 e | %15
w: lui ti- mide * et fa-|rou- che j'ai du plai-|sir mais je sais le ca-|cher, * je * rou- *|gis * si tôt qu'il me|
w: yeux il au- * rait pu|li- re, Mais de- vant|lui j'ai soin de les bais-|ser; * Je * re- *|tiens * jus- qu'à mon sou-|
w: ser qu'il croit * me sur-|pren- dre, M'ir- rite au|point qu'il ne peut m'a- pai-|ser; * Je * lui *|dis, * tu peux le re-|
{/f} e2 d z g2 g{/a} g | (f=B) (cd/e/) d2{/d} c2 | !fermata!B2 z c (c2 A) c | (c2 A) A d f d B | %19
w: tou- che je lui dé-|fend * de * * me tou-|cher. Com- ment * Co-|lin * sait— il donc que je|
w: ri- re, Et je lui|dis * de * * me lais-|ser; * * * *||
w: pren- dre, Je ne veux|pas * de * * ton bai-|ser. * * * *||
 e2 B2 g2{/g} f e | d2 e2 f3 g |{/g} f4 c2 A c | (c2 A) A d f d B | e2 B2 g2 f f | %24
w: l'ai- me? j'ai si bien|l'air de le ha-|ïr! Est— ce mon|cœur * qui s'est tra- hi lui|mê- me? Est— ce l'a-|
w: |||||
w: |||||
 B B (c/A/) (a/f/) e3 (f/d/) | !fermata!e4 :| %26
w: mour qui m'a * vou- * lu tra- *|hir?|
w: ||
w: ||
V:2
 z z [Ac] [FA][Ac] | z [Ac] [FA][Ac] z [FAd] z [FAd] | [GBe]4 [Ge]2 [Ad][Be] | %3
 [Bdf]2 [Be]2 [Ad]2 [GBe]2 | [Fd]4 z[I:staff +1] [A,C] [F,A,][A,C] | %5
[I:staff -1] z[I:staff +1] [A,C] [F,A,][A,C][I:staff -1] z D z D | E4 [GBe]2 [FAd]2 | %7
 [GBe]2 [Acf]2 [GBe]2 [FAd]2 | !fermata![GBe]4 |: z4 | z B GB z [AB] z [AB] | %11
 [AB]2 [GB]2 [GBe]2 z2 | [F=Ac]3 [FB] [E=A]2 [DFB]2 | [DB]2 [C=A]2 [ce][Bd][Ac][GB] | %14
 [F=A][GB][Ac][Bd] [ce]2 [ce]2 | [ce]2 [Bd]2 z B GB | [FB]2 [GB]2 B2 [=Ace]2 | %17
 !fermata![Bdf]2 z z z [Ac] [FA][Ac] | z [Ac] [FA][Ac] z [FAd] z [FAd] | [GBe]4 [Ge]2 [Ad][Be] | %20
 [Bdf]2 [Be]2 [Ad]2 [GBe]2 | [Fd]4 z[I:staff +1] [A,C] [F,A,][A,C] | %22
[I:staff -1] z[I:staff +1] [A,C] [F,A,][A,C][I:staff -1] z D z D | E4 [GBe]2 [FAd]2 | %24
 [GBe]2 [Acf]2 [GBe]2 [FAd]2 | !fermata![GBe]4 :| %26
V:3
 x E4 | E4 E2 E2 | E4 E2 EG | A2 G2 F2 E2 | x8 | x8 | x8 | x8 | x4 |: x4 | x8 | x8 | x8 | x8 | x8 | %15
 x8 | x8 | x4 E4 | E4 E2 E2 | E4 E2 FG | A2 G2 F2 E2 | x8 | x8 | x8 | x8 | x4 :| %26
V:4
 z E,4 | E,4 E,2 E,2 | E,4 E,2 F,G, | A,2 G,2 F,2 E,2 | [B,,B,]4 E,4 | E,4 E,2 E,2 | %6
 [E,G,]4 B,2 A,2 | G,2 A,2 B,2 B,,2 | !fermata!E,4 |: z4 |[I:staff -1] E4 D2[I:staff +1] B,2 | %11
[I:staff -1] E2[I:staff +1] E,2[I:staff -1] E2[I:staff +1] z2 | %12
[I:staff -1] E3 D[I:staff +1] C2 B,2 | F,2 F,,2 F,4 | F,4 z2 =A,2 | B,2 B,,2[I:staff -1] E4 | %16
 D2 E2 F2[I:staff +1] F,2 | !fermata!B,2 z z E,4 | E,4 E,2 E,2 | E,4 E,2 F,G, | A,2 G,2 F,2 E,2 | %21
 [B,,B,]4 E,4 | E,4 E,2 E,2 | [E,G,]4 B,2 A,2 | G,2 A,2 B,2 B,,2 | !fermata!E,4 :| %26
V:5
 x5 | x8 | x8 | x8 | x8 | x4 z [F,A,] z [F,A,] | B,4 x4 | x8 | x4 |: x4 | x8 | x8 | x8 | x8 | x8 | %15
 x8 | x8 | x8 | x8 | x8 | x8 | x8 | x5 [F,A,] x [F,A,] | B,4 x4 | x8 | x4 :| %26

